svg/fluentui-system-icons/ic_fluent_cloud_archive_32_filled.svg

<svg width="32" height="32" viewBox="0 0 32 32" fill="none" xmlns="http://www.w3.org/2000/svg">
<path d="M9.85104 7.74176C11.1661 6.13445 13.2003 5 16 5C17.7001 5 19.6821 5.5615 21.2582 6.85104C22.6793 8.01369 23.7307 9.73841 23.9553 12.0573C25.333 12.2223 26.6687 12.7404 27.7362 13.5647C28.5548 14.1969 29.2251 15.0195 29.6185 16H17C15.8954 16 15 16.8954 15 18V20C15 20.7403 15.4022 21.3866 16 21.7324V24H9C6.29252 24 4.48477 23.1798 3.37242 21.9085C2.28392 20.6645 2 19.1452 2 18C2 15.6444 3.93089 12.4699 8.05688 12.0472C8.22868 10.5914 8.79636 9.03082 9.85104 7.74176ZM16 18C16 17.4477 16.4477 17 17 17H30C30.5523 17 31 17.4477 31 18V20C31 20.5523 30.5523 21 30 21H17C16.4477 21 16 20.5523 16 20V18ZM29.8461 22H17V27.8461C17 29.503 18.3431 30.8461 20 30.8461H26.8461C28.503 30.8461 29.8461 29.503 29.8461 27.8461V22ZM21.5 24H25.5C25.7761 24 26 24.2239 26 24.5C26 24.7761 25.7761 25 25.5 25H21.5C21.2239 25 21 24.7761 21 24.5C21 24.2239 21.2239 24 21.5 24Z" fill="#212121"/>
</svg>

<svg xmlns="http://www.w3.org/2000/svg" width="32" height="32"><path d="M9.851 7.742C11.166 6.134 13.201 5 16 5c1.7 0 3.682.561 5.258 1.851 1.421 1.163 2.473 2.887 2.697 5.206 1.378.165 2.714.683 3.781 1.508.819.632 1.49 1.455 1.883 2.435H17a2 2 0 0 0-2 2v2a2 2 0 0 0 1 1.732V24H9c-2.707 0-4.515-.82-5.628-2.091C2.284 20.665 2 19.145 2 18c0-2.356 1.93-5.53 6.057-5.953.172-1.456.74-3.016 1.794-4.305ZM16 18a1 1 0 0 1 1-1h13a1 1 0 0 1 1 1v2a1 1 0 0 1-1 1H17a1 1 0 0 1-1-1v-2Zm13.846 4H17v5.846a3 3 0 0 0 3 3h6.846a3 3 0 0 0 3-3V22ZM21.5 24h4a.5.5 0 0 1 0 1h-4a.5.5 0 0 1 0-1Z"/></svg>
